X: 39372
T: Tana
R: reel
M: 4/4
K: Eminor
B,E{G}ED DG3|G,2 (3G,A,B, A,DDC|B,3A, G,A,{C}A,G,|C2 B,G, A,3A,|
B,E{G}ED DG3|G,2 (3G,A,B, A,DDC|B,3A, G,A, (3B,A,G,|C2 B,G, A,3A||
BAGF F-G3|DEDB, A,3B,|G,2 DB, A,2 G,A,|B,E{G}ED EFGA|
BAGF AGFG|DEDB, A,3B,|G,2 DB, A,2 G,A,|B,E{G}ED E2 {G}ED||

